!!!OTL: GANG MER NIT UEBER MIS MAETTELI
!!!ARE: Europa, Mitteleuropa, Deutschland; France, Elsass; Schweiz
!!!SCT: E1005
!!!YEM: Copyright 1995, estate of Helmut Schaffrath.
**kern
*ICvox
*Ivox
*M3/8
*k[f#]
*G:
=1
{8.b
16a
8b
=2
8.cc
16b
8cc
=3
8.dd
16ee
8dd}
=4
{8.b
16a
8b
=5
8.cc
16b
8cc
=6
4dd
8r}
=7
{8.b
16cc
8b
=8
8.a
16b
8a
=9
8g
16g
16b
8d}
=10
{8.b
16dd
8b
=11
8.a
16b
8a
=12
4g
8r}
==
!!!AGN: Tanz - Lied
!!!ONB: ESAC (Essen Associative Code) Database: ERK3
!!!AMT: simple triple
!!!AIN: vox
!!!EED: Helmut Schaffrath
!!!EEV: 1.0
*-
